third_party/noto/noto_2/emoji_u1f687.svg

<svg enable-background="new 0 0 128 128" viewBox="0 0 128 128" xmlns="http://www.w3.org/2000/svg" xmlns:xlink="http://www.w3.org/1999/xlink"><circle cx="63.92" cy="64.17" r="60" fill="#37474F"/><defs><circle id="c" cx="63.92" cy="64.17" r="60"/></defs><clipPath id="a"><use xlink:href="#c"/></clipPath><polygon points="45.14 99 80.48 99 108.47 124.56 20 123.76" clip-path="url(#a)" fill="#424242"/><polygon points="36 120 20 120 39.03 100.53 51.33 100.83" clip-path="url(#a)" fill="#757575"/><polygon points="92.38 119.63 108.76 119.25 89.86 99.94 77 100.22" clip-path="url(#a)" fill="#757575"/><ellipse cx="43.9" cy="100.54" rx="4.87" ry="4.57" clip-path="url(#a)"/><ellipse cx="84.7" cy="100.54" rx="4.87" ry="4.57" clip-path="url(#a)"/><path d="m86.05 101.54h-44.28c-2.17 0-3.94-1.77-3.94-3.94s1.77-3.94 3.94-3.94h44.28c2.17 0 3.94 1.77 3.94 3.94s-1.77 3.94-3.94 3.94z" clip-path="url(#a)" fill="#424242"/><linearGradient id="b" x1="63.907" x2="63.907" y1="20.619" y2="93.836" gradientUnits="userSpaceOnUse"><stop stop-color="#F5F5F5" offset=".1079"/><stop stop-color="#E8E8E8" offset=".6316"/><stop stop-color="#E0E0E0" offset=".8685"/></linearGradient><path d="m91.35 97.52h-54.89c-4.61 0-8.39-3.5-8.39-7.79v-51.3c0-17.5 13.6-18.47 35.83-18.47 23.31 0 35.83 1.13 35.83 18.47v51.3c0.01 4.28-3.77 7.79-8.38 7.79z" clip-path="url(#a)" fill="url(#b)"/><g clip-path="url(#a)" opacity=".1"><path d="m63.91 22.95c25.44 0 32.83 2.03 32.83 15.47v51.3c0 2.64-2.42 4.79-5.39 4.79h-54.89c-2.97 0-5.39-2.15-5.39-4.79v-51.3c0.01-14.07 9.51-15.47 32.84-15.47m0-3c-22.23 0-35.83 0.97-35.83 18.47v51.3c0 4.28 3.77 7.79 8.39 7.79h54.89c4.61 0 8.39-3.5 8.39-7.79v-51.3c-0.01-17.34-12.54-18.47-35.84-18.47z" fill="#424242"/></g><path d="m52.14 33.27c0-1.77-1.52-3.15-3.29-2.99-7.85 0.71-14.1 4.01-14.1 9.56v31.17c0 1.66 1.34 3 3 3h11.38c1.66 0 3-1.34 3-3v-37.74z" clip-path="url(#a)" fill="#4FC3F7"/><path d="M75.78,33.27c0-1.77,1.52-3.15,3.29-2.99c7.85,0.71,14.1,4.01,14.1,9.56 v31.17c0,1.66-1.34,3-3,3H78.78c-1.66,0-3-1.34-3-3V33.27z" clip-path="url(#a)" fill="#4FC3F7"/><path d="m50.14 89.28h-13.17c-1.1 0-2-0.9-2-2v-5.98c0-1.1 0.9-2 2-2h13.17c1.1 0 2 0.9 2 2v5.98c0 1.1-0.9 2-2 2z" clip-path="url(#a)" fill="#212121"/><path d="m90.75 89.28h-12.97c-1.1 0-2-0.9-2-2v-5.98c0-1.1 0.9-2 2-2h12.97c1.1 0 2 0.9 2 2v5.98c0 1.1-0.9 2-2 2z" clip-path="url(#a)" fill="#212121"/><path d="m68.29 28.28h-8.77c-1.1 0-2-0.9-2-2v-0.29c0-1.1 0.9-2 2-2h8.77c1.1 0 2 0.9 2 2v0.29c0 1.1-0.9 2-2 2z" clip-path="url(#a)" fill="#FDD835"/><path d="m68.12 73.92h-8.25c-1.66 0-3-1.34-3-3v-32.25c0-1.66 1.34-3 3-3h8.25c1.66 0 3 1.34 3 3v32.25c0 1.65-1.34 3-3 3z" clip-path="url(#a)" fill="#4FC3F7"/><circle cx="47.25" cy="84.5" r="2.67" clip-path="url(#a)" fill="#FDD835"/><circle cx="39.25" cy="84.5" r="2.67" clip-path="url(#a)" fill="#F44336"/><circle cx="88.25" cy="84.5" r="2.67" clip-path="url(#a)" fill="#F44336"/><circle cx="80.25" cy="84.5" r="2.67" clip-path="url(#a)" fill="#FDD835"/><g opacity=".2"><path d="m63.92 8.17c30.88 0 56 25.12 56 56s-25.12 56-56 56-56-25.12-56-56 25.12-56 56-56m0-4c-33.14 0-60 26.86-60 60s26.86 60 60 60 60-26.86 60-60-26.87-60-60-60z" fill="#eee"/></g><g opacity=".2"><path d="m49.13 32.26c0.56 0 1.01 0.45 1.01 1.01v37.74c0 0.55-0.45 1-1 1h-11.39c-0.55 0-1-0.45-1-1v-31.18c0-4.77 6.61-7.06 12.28-7.57h0.1m0-2c-0.09 0-0.18 0-0.28 0.01-7.85 0.71-14.1 4.01-14.1 9.56v31.17c0 1.66 1.34 3 3 3h11.38c1.66 0 3-1.34 3-3v-37.73c0.01-1.68-1.36-3.01-3-3.01z" fill="#424242"/></g><g opacity=".2"><path d="m78.79 32.26h0.1c5.66 0.51 12.28 2.8 12.28 7.57v31.17c0 0.55-0.45 1-1 1h-11.39c-0.55 0-1-0.45-1-1v-37.73c0-0.56 0.45-1.01 1.01-1.01m0-2c-1.64 0-3.01 1.33-3.01 3.01v37.74c0 1.66 1.34 3 3 3h11.38c1.66 0 3-1.34 3-3v-31.18c0-5.56-6.25-8.85-14.1-9.56-0.09 0-0.18-0.01-0.27-0.01z" fill="#424242"/></g><g opacity=".2"><path d="m68.12 37.67c0.55 0 1 0.45 1 1v32.25c0 0.55-0.45 1-1 1h-8.25c-0.55 0-1-0.45-1-1v-32.25c0-0.55 0.45-1 1-1h8.25m0-2h-8.25c-1.66 0-3 1.34-3 3v32.25c0 1.66 1.34 3 3 3h8.25c1.66 0 3-1.34 3-3v-32.25c0-1.66-1.34-3-3-3z" fill="#424242"/></g></svg>

<?xml version="1.0" encoding="utf-8"?>
<!-- Generator: Adobe Illustrator 19.2.1, SVG Export Plug-In . SVG Version: 6.00 Build 0)  -->
<svg version="1.1" id="Layer_1" xmlns="http://www.w3.org/2000/svg" xmlns:xlink="http://www.w3.org/1999/xlink" x="0px" y="0px"
	 viewBox="0 0 128 128" style="enable-background:new 0 0 128 128;" xml:space="preserve">
<circle style="fill:#37474F;" cx="63.92" cy="64.17" r="60"/>
<g>
	<defs>
		<circle id="SVGID_1_" cx="63.92" cy="64.17" r="60"/>
	</defs>
	<clipPath id="SVGID_2_">
		<use xlink:href="#SVGID_1_"  style="overflow:visible;"/>
	</clipPath>
	<polygon style="clip-path:url(#SVGID_2_);fill:#424242;" points="45.14,99 80.48,99 108.47,124.56 20,123.76 	"/>
	<polygon style="clip-path:url(#SVGID_2_);fill:#757575;" points="36,120 20,120 39.03,100.53 51.33,100.83 	"/>
	<polygon style="clip-path:url(#SVGID_2_);fill:#757575;" points="92.38,119.63 108.76,119.25 89.86,99.94 77,100.22 	"/>
	<ellipse style="clip-path:url(#SVGID_2_);" cx="43.9" cy="100.54" rx="4.87" ry="4.57"/>
	<ellipse style="clip-path:url(#SVGID_2_);" cx="84.7" cy="100.54" rx="4.87" ry="4.57"/>
	<path style="clip-path:url(#SVGID_2_);fill:#424242;" d="M86.05,101.54H41.77c-2.17,0-3.94-1.77-3.94-3.94v0
		c0-2.17,1.77-3.94,3.94-3.94h44.28c2.17,0,3.94,1.77,3.94,3.94v0C89.99,99.77,88.22,101.54,86.05,101.54z"/>
	<linearGradient id="SVGID_3_" gradientUnits="userSpaceOnUse" x1="63.907" y1="20.6194" x2="63.907" y2="93.8357">
		<stop  offset="0.1079" style="stop-color:#F5F5F5"/>
		<stop  offset="0.6316" style="stop-color:#E8E8E8"/>
		<stop  offset="0.8685" style="stop-color:#E0E0E0"/>
	</linearGradient>
	<path style="clip-path:url(#SVGID_2_);fill:url(#SVGID_3_);" d="M91.35,97.52H36.46c-4.61,0-8.39-3.5-8.39-7.79v-51.3
		c0-17.5,13.6-18.47,35.83-18.47c23.31,0,35.83,1.13,35.83,18.47v51.3C99.74,94.01,95.96,97.52,91.35,97.52z"/>
	<g style="opacity:0.1;clip-path:url(#SVGID_2_);">
		<path style="fill:#424242;" d="M63.91,22.95c25.44,0,32.83,2.03,32.83,15.47v51.3c0,2.64-2.42,4.79-5.39,4.79H36.46
			c-2.97,0-5.39-2.15-5.39-4.79v-51.3C31.08,24.35,40.58,22.95,63.91,22.95 M63.91,19.95c-22.23,0-35.83,0.97-35.83,18.47v51.3
			c0,4.28,3.77,7.79,8.39,7.79h54.89c4.61,0,8.39-3.5,8.39-7.79v-51.3C99.74,21.08,87.21,19.95,63.91,19.95L63.91,19.95z"/>
	</g>
	<path style="clip-path:url(#SVGID_2_);fill:#4FC3F7;" d="M52.14,33.27c0-1.77-1.52-3.15-3.29-2.99c-7.85,0.71-14.1,4.01-14.1,9.56
		v31.17c0,1.66,1.34,3,3,3h11.38c1.66,0,3-1.34,3-3V33.27z"/>
	<path style="clip-path:url(#SVGID_2_);fill:#4FC3F7;" d="M75.78,33.27c0-1.77,1.52-3.15,3.29-2.99c7.85,0.71,14.1,4.01,14.1,9.56
		v31.17c0,1.66-1.34,3-3,3H78.78c-1.66,0-3-1.34-3-3V33.27z"/>
	<path style="clip-path:url(#SVGID_2_);fill:#212121;" d="M50.14,89.28H36.97c-1.1,0-2-0.9-2-2v-5.98c0-1.1,0.9-2,2-2h13.17
		c1.1,0,2,0.9,2,2v5.98C52.14,88.38,51.24,89.28,50.14,89.28z"/>
	<path style="clip-path:url(#SVGID_2_);fill:#212121;" d="M90.75,89.28H77.78c-1.1,0-2-0.9-2-2v-5.98c0-1.1,0.9-2,2-2h12.97
		c1.1,0,2,0.9,2,2v5.98C92.75,88.38,91.85,89.28,90.75,89.28z"/>
	<path style="clip-path:url(#SVGID_2_);fill:#FDD835;" d="M68.29,28.28h-8.77c-1.1,0-2-0.9-2-2v-0.29c0-1.1,0.9-2,2-2l8.77,0
		c1.1,0,2,0.9,2,2v0.29C70.29,27.38,69.39,28.28,68.29,28.28z"/>
	<path style="clip-path:url(#SVGID_2_);fill:#4FC3F7;" d="M68.12,73.92h-8.25c-1.66,0-3-1.34-3-3V38.67c0-1.66,1.34-3,3-3h8.25
		c1.66,0,3,1.34,3,3v32.25C71.12,72.57,69.78,73.92,68.12,73.92z"/>
	<circle style="clip-path:url(#SVGID_2_);fill:#FDD835;" cx="47.25" cy="84.5" r="2.67"/>
	<circle style="clip-path:url(#SVGID_2_);fill:#F44336;" cx="39.25" cy="84.5" r="2.67"/>
	<circle style="clip-path:url(#SVGID_2_);fill:#F44336;" cx="88.25" cy="84.5" r="2.67"/>
	<circle style="clip-path:url(#SVGID_2_);fill:#FDD835;" cx="80.25" cy="84.5" r="2.67"/>
</g>
<g style="opacity:0.2;">
	<path style="fill:#EEEEEE;" d="M63.92,8.17c30.88,0,56,25.12,56,56s-25.12,56-56,56s-56-25.12-56-56S33.04,8.17,63.92,8.17
		 M63.92,4.17c-33.14,0-60,26.86-60,60s26.86,60,60,60c33.14,0,60-26.86,60-60S97.05,4.17,63.92,4.17L63.92,4.17z"/>
</g>
<g style="opacity:0.2;">
	<path style="fill:#424242;" d="M49.13,32.26c0.56,0,1.01,0.45,1.01,1.01v37.74c0,0.55-0.45,1-1,1H37.75c-0.55,0-1-0.45-1-1V39.83
		c0-4.77,6.61-7.06,12.28-7.57C49.06,32.26,49.1,32.26,49.13,32.26 M49.13,30.26c-0.09,0-0.18,0-0.28,0.01
		c-7.85,0.71-14.1,4.01-14.1,9.56v31.17c0,1.66,1.34,3,3,3h11.38c1.66,0,3-1.34,3-3V33.27C52.14,31.59,50.77,30.26,49.13,30.26
		L49.13,30.26z"/>
</g>
<g style="opacity:0.2;">
	<path style="fill:#424242;" d="M78.79,32.26L78.79,32.26c0.03,0,0.06,0,0.1,0c5.66,0.51,12.28,2.8,12.28,7.57v31.17
		c0,0.55-0.45,1-1,1H78.78c-0.55,0-1-0.45-1-1V33.27C77.78,32.71,78.23,32.26,78.79,32.26 M78.79,30.26c-1.64,0-3.01,1.33-3.01,3.01
		v37.74c0,1.66,1.34,3,3,3h11.38c1.66,0,3-1.34,3-3V39.83c0-5.56-6.25-8.85-14.1-9.56C78.97,30.27,78.88,30.26,78.79,30.26
		L78.79,30.26z"/>
</g>
<g style="opacity:0.2;">
	<path style="fill:#424242;" d="M68.12,37.67c0.55,0,1,0.45,1,1v32.25c0,0.55-0.45,1-1,1h-8.25c-0.55,0-1-0.45-1-1V38.67
		c0-0.55,0.45-1,1-1H68.12 M68.12,35.67h-8.25c-1.66,0-3,1.34-3,3v32.25c0,1.66,1.34,3,3,3h8.25c1.66,0,3-1.34,3-3V38.67
		C71.12,37.01,69.78,35.67,68.12,35.67L68.12,35.67z"/>
</g>
</svg>
